!!!COM: Haydn, Franz Joseph
!!!OPR: String Quartet in E-flat Major
!!!ONM: Opus 1, No. 0
!!!OTL:
!!!OMV: 4
!!!SCT: H II:6
!!!SCA: Thematisch-bibliographisches Werkevererzeichnis (A. van Hoboken)
!!!YOR: Bremner Edition, 1772
!!!EED: Frances Bennion
!!!ENC: Frances Bennion
!!!CDT: 1732/3/31/-1809/5/31/
!!!OCY: Österreich
!!!YEC: Copyright (c) 1994, 2000 Center for Computer Assisted Research in the Humanities
!!!YEM: Rights to all derivative editions reserved.
!!!YEM: Refer to licensing agreement for further details.
!!!YEN: United States of America
**kern	**kern	**kern	**kern
*k[b-e-a-]	*k[b-e-a-]	*k[b-e-a-]	*k[b-e-a-]
*E-:	*E-:	*E-:	*E-:
*clefF	*clefF	*clefC3	*clefF4
*M3/4	*M3/4	*M3/4	*M3/4
=1	=1	=1	=1
2.ee-	2.ee-	4e-	4E-
.	.	4g	4G
.	.	4e-	4E-
=2	=2	=2	=2
2.bb-	2.bb-	4d	4D
.	.	4b-	4B-
.	.	4B-	4BB-
=3	=3	=3	=3
8bb-	8bb-	4c	4C
8aa-	8aa-	.	.
8ccc	8ccc	4a-	4A-
8aa-	8aa-	.	.
8gg	8gg	4A-	4AA-
8ff	8ff	.	.
=4	=4	=4	=4
2dd	2dd	4B-	4BB-
.	.	4A-	4AA-
4ee-	4ee-	4G	4GG
=5	=5	=5	=5
2.e-	2.e-	4r	4r
.	.	4g	4G
.	.	4e-	4E-
=6	=6	=6	=6
2.b-	2.b-	4d	4D
.	.	4dd	4d
.	.	4b-	4B-
=7	=7	=7	=7
8b-	8b-	4cc	4c
8a	8a	.	.
4ee-	4ee-	4a	4A
4ee-	4ee-	4f	4F
=8	=8	=8	=8
2dd	2dd	4b-	4B-
.	.	4B-	4BB-
12gg	4b-	4g	4E-
12aa	.	.	.
12bb-	.	.	.
=9	=9	=9	=9
8bb-	2b-	4f	2D
8ff	.	.	.
8ff	.	4d	.
8ff	.	.	.
12gg	4b-	4g	4E-
12aa	.	.	.
12bb-	.	.	.
=10	=10	=10	=10
8bb-	2b-	4f	2D
8ff	.	.	.
8ff	.	4d	.
8ff	.	.	.
8ddd	4ff	4d	4D
8bb-	.	.	.
=11	=11	=11	=11
12gg	12ee-	4e-	4E-
12ff	12dd	.	.
12ee-	12cc	.	.
4dd	4b-	4f	4F
4cc	4a	4F	4FF
=12	=12	=12	=12
2b-	2b-	4B-	4BB-
.	.	4b-	4B-
4r	4r	4B-	4BB-
=13	=13	=13	=13
[2.bb-	2.r	2b-	4BB-
.	.	.	4B-
.	.	12dd	4A-
.	.	12cc	.
.	.	12b-	.
=14	=14	=14	=14
2.bb-_	4r	8ee-	4G
.	.	8b-	.
.	4r	8b-	4E-
.	.	8b-	.
.	12gg	4b-	4E-
.	12aa-	.	.
.	12bb-	.	.
=15	=15	=15	=15
2.bb-_	8aa-	4r	4F
.	8ff	.	.
.	8ff	4r	4B-
.	8ff	.	.
.	8ff	12dd	4A-
.	8r	12cc	.
.	.	12b-	.
=16	=16	=16	=16
2.bb-]	4r	8ee-	4G
.	.	8b-	.
.	4r	8b-	4E-
.	.	8b-	.
.	12gg	4b-	4E-
.	12aa-	.	.
.	12bb-	.	.
=17	=17	=17	=17
8bb-	2.cc	4r	2AA-
8bb	.	.	.
8ccc	.	4A-	.
8aa-	.	.	.
8gg	.	4A	4AA
8ff	.	.	.
=18	=18	=18	=18
2dd	2.f	4B-	4BB-
.	.	4b-	4B-
4r	.	4r	4r
=19	=19	=19	=19
2.ee-	4e-	2.r	2.r
.	4g	.	.
.	4e-	.	.
=20	=20	=20	=20
2.ddd-	4b-	2.r	2.r
.	4g	.	.
.	4e-	.	.
=21	=21	=21	=21
4ccc	4a-	2.r	2.r
4aa-	4ff	.	.
8.r	4f	.	.
16ccc	.	.	.
=22	=22	=22	=22
4bb-	4g	2.r	2.r
4gg	4ee-	.	.
8.r	4e-	.	.
16bb-	.	.	.
=23	=23	=23	=23
4aa-	4f	2.r	2.r
4ff	4d	.	.
8gg	4e-	.	.
8ee-	.	.	.
=24	=24	=24	=24
4b-	4b-	2.r	2.r
4r	8b-	.	.
.	8a-	.	.
4r	8g	.	.
.	8f	.	.
=25	=25	=25	=25
2.e-	2.e-	4e-	4E-
.	.	4g	4G
.	.	4e-	4E-
=26	=26	=26	=26
2.b-	2.b-	4d	4D
.	.	4b-	4B-
.	.	4B-	4BB-
=27	=27	=27	=27
8b-	8b-	4c	4C
8a-	8a-	.	.
8cc	8cc	4a-	4A-
8a-	8a-	.	.
8g	8g	4A-	4AA-
8f	8f	.	.
=28	=28	=28	=28
2d	2d	4B-	4BB-
.	.	4b-	4B-
12cc	4e-	4c	4AA-
12dd	.	.	.
12ee-	.	.	.
=29	=29	=29	=29
8ee-	2e-	4B-	2GG
8b-	.	.	.
8b-	.	4G	.
8b-	.	.	.
12cc	4e-	4c	4AA-
12dd	.	.	.
12ee-	.	.	.
=30	=30	=30	=30
8ee-	2e-	4B-	2GG
8b-	.	.	.
8b-	.	4G	.
8b-	.	.	.
8gg	8e-	4G	4GG
8ee-	8b-	.	.
=31	=31	=31	=31
8cc	8a-	4A-	4AA-
16b-	16g	.	.
16a-	16f	.	.
4g	4e-	4B-	4BB-
4f	4d	4B-	4BB-
=32	=32	=32	=32
2e-	2.e-	4e-	4EE-
.	.	4E-	4E-
4r	.	4r	4EE-
=33	=33	=33	=33
2e- 2G	2G 2e-	2e-	2E-
4r	4r	8g	4r
.	.	8b-	.
=34	=34	=34	=34
2.r	2.r	12ee-	2.r
.	.	12dd	.
.	.	12cc	.
.	.	4b-	.
.	.	4r	.
=35	=35	=35	=35
2.r	12ee-	12cc	2.r
.	12dd	12b-	.
.	12cc	12a-	.
.	4b-	4g	.
.	4r	4r	.
=36	=36	=36	=36
2.r	12cc	12a-	2.r
.	12b-	12g	.
.	12a-	12f	.
.	4g	4e-	.
.	4r	4r	.
=37	=37	=37	=37
2c	2.e-	2f	2AA-
4B-	.	4g	4BB-
=38	=38	=38	=38
4A-	2.e-	4a-	4C
2r	.	4b-	4BB-
.	.	4cc	4AA-
=39	=39	=39	=39
2.r	4e-	8b-	8GG
.	.	8a-	8AA-
.	4e-	4g	4BB-
.	4d	4f	4BB-
=40	=40	=40	=40
2.r	2.e-	2e-	4E-
.	.	.	4BB-
.	.	4r	4EE-
=41	=41	=41	=41
2.r	2d	2f	2BB-
.	4e-	4g-	4AA
=42	=42	=42	=42
4r	4d	4f	4BB-
12bb-	4r	2r	2r
12aa-	.	.	.
12gg-	.	.	.
4ff	4r	.	.
=43	=43	=43	=43
2.r	2d	2f	2BB-
.	4e-	4g-	4AA
=44	=44	=44	=44
4r	4d	4f	4BB-
12bb-	4r	2r	2r
12aa-	.	.	.
12gg-	.	.	.
4ff	4r	.	.
=45	=45	=45	=45
2.r	12b-	12g-	4BB-
.	12a-	12f	.
.	12g-	12e-	.
.	2b-	2g-	4BB-
.	.	.	4BB-
=46	=46	=46	=46
2.r	12a-	12f	4BB-
.	12g-	12e-	.
.	12f	12d	.
.	2a-	2f	4BB-
.	.	.	4BB-
=47	=47	=47	=47
2.r	8g-	8e-	4BB-
.	8b-	8g-	.
.	8b-	8g-	4BB-
.	8a-	8f	.
.	8a-	8f	4BB-
.	8g-	8e-	.
=48	=48	=48	=48
2.r	2f	2d	4BB-
.	.	.	4B-
.	4r	4r	4r
=49	=49	=49	=49
2e- 2G	2e- 2G	2e-	2E-
4r	4r	8g	4r
.	.	8b-	.
=50	=50	=50	=50
2.r	2.r	12ee-	2.r
.	.	12dd	.
.	.	12cc	.
.	.	4b-	.
.	.	4r	.
=51	=51	=51	=51
2.r	12ee-	12cc	2.r
.	12dd	12b-	.
.	12cc	12a-	.
.	4b-	4g	.
.	4r	4r	.
=52	=52	=52	=52
2.r	12cc	12a-	2.r
.	12b-	12g	.
.	12a-	12f	.
.	4g	4e-	.
.	4r	4r	.
=53	=53	=53	=53
2c	2.e-	2f	2AA-
4B-	.	4g	4BB-
=54	=54	=54	=54
4A-	2.e-	4a-	4C
4r	.	4b-	4BB-
4r	.	4cc	4AA-
=55	=55	=55	=55
2.r	4e-	8b-	8GG
.	.	8a-	8AA-
.	4e-	4g	4BB-
.	4d	4f	4BB-
=56	=56	=56	=56
2ee-	2e-	2e-	4E-
.	.	.	4EE-
8gg	4r	4r	4r
8bb-	.	.	.
=57	=57	=57	=57
12eee-	2.r	2.r	2.r
12ddd	.	.	.
12ccc	.	.	.
4bb-	.	.	.
4r	.	.	.
=58	=58	=58	=58
2.r	12ee-	12cc	2.r
.	12dd	12b-	.
.	12cc	12a-	.
.	4b-	4g	.
.	4r	4r	.
=59	=59	=59	=59
12eee-	2r	4r	2r
12ddd	.	.	.
12ccc	.	.	.
4bb-	.	4r	.
4r	12f	12d	4BB-
.	12g	12e-	.
.	12a-	12f	.
=60	=60	=60	=60
2.r	12g	12e-	4E-
.	12a-	12f	.
.	12b-	12g	.
.	12a-	12f	4r
.	12b-	12g	.
.	12cc	12a-	.
.	4b-	4g	4E-
=61	=61	=61	=61
8cc	12cc	12a-	4A-
16b-	12b-	12g	.
16a-	12a-	12f	.
4g	4g	4e-	4B-
4f	4f	4d	4BB-
=62	=62	=62	=62
2e-	2e-	2e-	4E-
.	.	.	4BB-
4r	4r	4r	4EE-
==	==	==	==
*-	*-	*-	*-
!!!RWG1: This file contains only pitch and duration data.
!!!RWG2: Transposing instruments are not transposed.
!!!RWG3: Spines may have incompatible meters.
!!!RWG4: Durations of rests and tied notes may be interpreted.
!!!RWG: Key is interpreted using the Humdrum key tool.
!!!GTL: 10 Divertimentos
!!!AFT: stage1
!!!END: 1997/04/15
!!format changes:
!!content changes:
!!public access: complete
!!!KEY: 300972727
!!!EMD: Converted from MuseData to Humdrum Dec 16, 2000, by Andreas Kornstaedt using muse2kern.
